; generated by PrusaSlicer 2.3.3 on 2021-12-05 at 21:53:06 UTC

; 

; external perimeters extrusion width = 0.45mm
; perimeters extrusion width = 0.45mm
; infill extrusion width = 0.45mm
; solid infill extrusion width = 0.45mm
; top infill extrusion width = 0.40mm
; first layer extrusion width = 0.42mm

M73 P0 R74
M73 Q0 S75
M201 X1000 Y1000 Z200 E5000 ; sets maximum accelerations, mm/sec^2
M203 X200 Y200 Z12 E120 ; sets maximum feedrates, mm/sec
M204 P1250 R1250 T1250 ; sets acceleration (P, T) and retract acceleration (R), mm/sec^2
M205 X8.00 Y8.00 Z0.40 E4.50 ; sets the jerk limits, mm/sec
M205 S0 T0 ; sets the minimum extruding and travel feed rate, mm/sec
M107
;TYPE:Custom
M862.3 P "MK3" ; printer model check
M862.1 P0.4 ; nozzle diameter check
M115 U3.10.0 ; tell printer latest fw version
G90 ; use absolute coordinates
M83 ; extruder relative mode
M104 S215 ; set extruder temp
M140 S60 ; set bed temp
M190 S60 ; wait for bed temp
M109 S215 ; wait for extruder temp
G28 W ; home all without mesh bed level
G80 ; mesh bed leveling
G1 Y-3.0 F1000.0 ; go outside print area
G92 E0.0
G1 X60.0 E9.0 F1000.0 ; intro line
G1 X100.0 E12.5 F1000.0 ; intro line
G92 E0.0
M221 S95

; Don't change E values below. Excessive value can damage the printer.

M907 E538 ; set extruder motor current
G21 ; set units to millimeters
G90 ; use absolute coordinates
M83 ; use relative distances for extrusion
M900 K0.05 ; Filament gcode LA 1.5
M900 K30 ; Filament gcode LA 1.0
;LAYER_CHANGE
;Z:0.2
;HEIGHT:0.2
;BEFORE_LAYER_CHANGE
G92 E0.0
;0.2


G1 E-0.80000 F2100.000
G1 Z0.400 F10800.000
;AFTER_LAYER_CHANGE
;0.2
G1 X49.218 Y77.755
G1 Z0.200
G1 E0.80000 F2100.000
M204 S1000
;TYPE:Skirt
;WIDTH:0.42
G1 F1200.000
G1 X50.000 Y77.623 E0.02488
G1 X200.004 Y77.623 E4.70326
G1 X200.906 Y77.802 E0.02884
G1 X201.670 Y78.308 E0.02872
G1 X202.185 Y79.065 E0.02872
G1 X202.377 Y79.965 E0.02884
G1 X202.376 Y130.072 E1.57109
G1 X202.248 Y130.774 E0.02237
G1 X201.917 Y131.406 E0.02237
G1 X201.413 Y131.911 E0.02237
G1 X200.782 Y132.245 E0.02237
G1 X200.000 Y132.377 E0.02488
G1 X49.977 Y132.377 E4.70386
G1 X49.262 Y132.260 E0.02272
G1 X48.612 Y131.930 E0.02284
G1 X48.095 Y131.422 E0.02272
G1 X47.755 Y130.782 E0.02272
G1 X47.623 Y130.005 E0.02473
G1 X47.624 Y79.935 E1.56990
M73 P0 R73
G1 X47.750 Y79.233 E0.02237
G1 X48.081 Y78.597 E0.02249
G1 X48.587 Y78.089 E0.02249
G1 X49.165 Y77.783 E0.02049
; printing object TestRig-PartBasePlate.stl id:0 copy 0
;WIPE_START
G1 F8640.000
G1 X50.000 Y77.623 E-0.19641
G1 X52.441 Y77.623 E-0.56359
;WIPE_END
G1 E-0.04000 F2100.000
G1 Z0.600 F10800.000
G1 X50.787 Y80.787
G1 Z0.200
G1 E0.80000 F2100.000
;TYPE:Perimeter
G1 F1200.000
G1 X199.213 Y80.787 E4.65379
G1 X199.213 Y129.213 E1.51836
G1 X50.787 Y129.213 E4.65379
M73 P1 R73
M73 Q1 S75
G1 X50.787 Y80.847 E1.51648
G1 X50.410 Y80.410 F10800.000
;TYPE:External perimeter
G1 F1200.000
G1 X199.590 Y80.410 E4.67743
M73 Q1 S74
G1 X199.590 Y129.590 E1.54200
G1 X50.410 Y129.590 E4.67743
G1 X50.410 Y80.470 E1.54012
G1 X50.808 Y80.452 F10800.000
;WIPE_START
G1 F8640.000
G1 X53.701 Y80.469 E-0.76000
;WIPE_END
G1 E-0.04000 F2100.000
G1 Z0.600 F10800.000
G1 X199.100 Y81.663
G1 Z0.200
G1 E0.80000 F2100.000
;TYPE:Solid infill
;WIDTH:0.420443
G1 F1200.000
G1 X198.506 Y81.070 E0.02635
G1 X197.972 Y81.070 E0.01676
G1 X198.930 Y82.028 E0.04252
G1 X198.930 Y82.562 E0.01676
G1 X197.438 Y81.070 E0.06622
G1 X196.905 Y81.070 E0.01676
G1 X198.930 Y83.095 E0.08992
G1 X198.930 Y83.629 E0.01676
G1 X196.371 Y81.070 E0.11362
G1 X195.837 Y81.070 E0.01676
G1 X198.930 Y84.163 E0.13732
G1 X198.930 Y84.697 E0.01676
G1 X195.303 Y81.070 E0.16103
G1 X194.769 Y81.070 E0.01676
G1 X198.930 Y85.231 E0.18473
G1 X198.930 Y85.765 E0.01676
G1 X194.235 Y81.070 E0.20843
G1 X193.701 Y81.070 E0.01676
G1 X198.930 Y86.299 E0.23213
G1 X198.930 Y86.833 E0.01676
G1 X193.167 Y81.070 E0.25583
G1 X192.633 Y81.070 E0.01676
G1 X198.930 Y87.367 E0.27954
G1 X198.930 Y87.900 E0.01676
G1 X192.100 Y81.070 E0.30324
G1 X191.566 Y81.070 E0.01676
G1 X198.930 Y88.434 E0.32694
G1 X198.930 Y88.968 E0.01676
G1 X191.032 Y81.070 E0.35064
G1 X190.498 Y81.070 E0.01676
G1 X198.930 Y89.502 E0.37434
G1 X198.930 Y90.036 E0.01676
G1 X189.964 Y81.070 E0.39804
G1 X189.430 Y81.070 E0.01676
G1 X198.930 Y90.570 E0.42175
G1 X198.930 Y91.104 E0.01676
G1 X188.896 Y81.070 E0.44545
G1 X188.362 Y81.070 E0.01676
G1 X198.930 Y91.638 E0.46915
G1 X198.930 Y92.172 E0.01676
G1 X187.828 Y81.070 E0.49285
G1 X187.294 Y81.070 E0.01676
G1 X198.930 Y92.706 E0.51655
G1 X198.930 Y93.239 E0.01676
G1 X186.761 Y81.070 E0.54025
G1 X186.227 Y81.070 E0.01676
G1 X198.930 Y93.773 E0.56396
G1 X198.930 Y94.307 E0.01676
G1 X185.693 Y81.070 E0.58766
G1 X185.159 Y81.070 E0.01676
G1 X198.930 Y94.841 E0.61136
G1 X198.930 Y95.375 E0.01676
G1 X184.625 Y81.070 E0.63506
G1 X184.091 Y81.070 E0.01676
G1 X198.930 Y95.909 E0.65876
G1 X198.930 Y96.443 E0.01676
G1 X183.557 Y81.070 E0.68247
M73 P1 R72
G1 X183.023 Y81.070 E0.01676
G1 X198.930 Y96.977 E0.70617
G1 X198.930 Y97.511 E0.01676
G1 X182.489 Y81.070 E0.72987
M73 P2 R72
G1 X181.955 Y81.070 E0.01676
G1 X198.930 Y98.045 E0.75357
M73 Q2 S74
G1 X198.930 Y98.578 E0.01676
G1 X181.422 Y81.070 E0.77727
G1 X180.888 Y81.070 E0.01676
G1 X198.930 Y99.112 E0.80097
G1 X198.930 Y99.646 E0.01676
G1 X180.354 Y81.070 E0.82468
G1 X179.820 Y81.070 E0.01676
G1 X198.930 Y100.180 E0.84838
G1 X198.930 Y100.714 E0.01676
G1 X179.286 Y81.070 E0.87208
G1 X178.752 Y81.070 E0.01676
G1 X198.930 Y101.248 E0.89578
G1 X198.930 Y101.782 E0.01676
G1 X178.218 Y81.070 E0.91948
G1 X177.684 Y81.070 E0.01676
G1 X198.930 Y102.316 E0.94319
G1 X198.930 Y102.850 E0.01676
G1 X177.150 Y81.070 E0.96689
G1 X176.616 Y81.070 E0.01676
G1 X198.930 Y103.384 E0.99059
G1 X198.930 Y103.917 E0.01676
G1 X176.083 Y81.070 E1.01429
G1 X175.549 Y81.070 E0.01676
G1 X198.930 Y104.451 E1.03799
G1 X198.930 Y104.985 E0.01676
G1 X175.015 Y81.070 E1.06169
G1 X174.481 Y81.070 E0.01676
G1 X198.930 Y105.519 E1.08540
M73 Q2 S73
G1 X198.930 Y106.053 E0.01676
G1 X173.947 Y81.070 E1.10910
G1 X173.413 Y81.070 E0.01676
G1 X198.930 Y106.587 E1.13280
G1 X198.930 Y107.121 E0.01676
G1 X172.879 Y81.070 E1.15650
G1 X172.345 Y81.070 E0.01676
G1 X198.930 Y107.655 E1.18020
G1 X198.930 Y108.189 E0.01676
G1 X171.811 Y81.070 E1.20390
G1 X171.277 Y81.070 E0.01676
G1 X198.930 Y108.723 E1.22761
G1 X198.930 Y109.256 E0.01676
G1 X170.744 Y81.070 E1.25131
G1 X170.210 Y81.070 E0.01676
G1 X198.930 Y109.790 E1.27501
G1 X198.930 Y110.324 E0.01676
G1 X169.676 Y81.070 E1.29871
G1 X169.142 Y81.070 E0.01676
G1 X198.930 Y110.858 E1.32241
G1 X198.930 Y111.392 E0.01676
G1 X168.608 Y81.070 E1.34612
M73 P3 R72
G1 X168.074 Y81.070 E0.01676
G1 X198.930 Y111.926 E1.36982
M73 Q3 S73
G1 X198.930 Y112.460 E0.01676
G1 X167.540 Y81.070 E1.39352
G1 X167.006 Y81.070 E0.01676
G1 X198.930 Y112.994 E1.41722
G1 X198.930 Y113.528 E0.01676
G1 X166.472 Y81.070 E1.44092
G1 X165.938 Y81.070 E0.01676
G1 X198.930 Y114.062 E1.46462
G1 X198.930 Y114.595 E0.01676
G1 X165.405 Y81.070 E1.48833
M73 P3 R71
G1 X164.871 Y81.070 E0.01676
G1 X198.930 Y115.129 E1.51203
G1 X198.930 Y115.663 E0.01676
G1 X164.337 Y81.070 E1.53573
G1 X163.803 Y81.070 E0.01676
G1 X198.930 Y116.197 E1.55943
G1 X198.930 Y116.731 E0.01676
G1 X163.269 Y81.070 E1.58313
G1 X162.735 Y81.070 E0.01676
G1 X198.930 Y117.265 E1.60683
G1 X198.930 Y117.799 E0.01676
G1 X162.201 Y81.070 E1.63054
G1 X161.667 Y81.070 E0.01676
G1 X198.930 Y118.333 E1.65424
G1 X198.930 Y118.867 E0.01676
G1 X161.133 Y81.070 E1.67794
G1 X160.600 Y81.070 E0.01676
G1 X198.930 Y119.400 E1.70164
G1 X198.930 Y119.934 E0.01676
G1 X160.066 Y81.070 E1.72534
M73 Q3 S72
G1 X159.532 Y81.070 E0.01676
G1 X198.930 Y120.468 E1.74905
G1 X198.930 Y121.002 E0.01676
G1 X158.998 Y81.070 E1.77275
M73 P4 R71
G1 X158.464 Y81.070 E0.01676
G1 X198.930 Y121.536 E1.79645
M73 Q4 S72
G1 X198.930 Y122.070 E0.01676
G1 X157.930 Y81.070 E1.82015
G1 X157.396 Y81.070 E0.01676
G1 X198.930 Y122.604 E1.84385
G1 X198.930 Y123.138 E0.01676
G1 X156.862 Y81.070 E1.86755
G1 X156.328 Y81.070 E0.01676
G1 X198.930 Y123.672 E1.89126
G1 X198.930 Y124.206 E0.01676
G1 X155.794 Y81.070 E1.91496
G1 X155.261 Y81.070 E0.01676
G1 X198.930 Y124.739 E1.93866
G1 X198.930 Y125.273 E0.01676
G1 X154.727 Y81.070 E1.96236
G1 X154.193 Y81.070 E0.01676
G1 X198.930 Y125.807 E1.98606
M73 P4 R70
G1 X198.930 Y126.341 E0.01676
G1 X153.659 Y81.070 E2.00976
G1 X153.125 Y81.070 E0.01676
G1 X198.930 Y126.875 E2.03347
G1 X198.930 Y127.409 E0.01676
G1 X152.591 Y81.070 E2.05717
G1 X152.057 Y81.070 E0.01676
G1 X198.930 Y127.943 E2.08087
G1 X198.930 Y128.477 E0.01676
G1 X151.523 Y81.070 E2.10457
M73 P5 R70
G1 X150.989 Y81.070 E0.01676
G1 X198.850 Y128.930 E2.12470
M73 Q5 S72
G1 X198.316 Y128.930 E0.01676
G1 X150.455 Y81.070 E2.12470
G1 X149.922 Y81.070 E0.01676
G1 X197.782 Y128.930 E2.12470
M73 Q5 S71
G1 X197.248 Y128.930 E0.01676
G1 X149.388 Y81.070 E2.12470
G1 X148.854 Y81.070 E0.01676
G1 X196.714 Y128.930 E2.12470
G1 X196.180 Y128.930 E0.01676
G1 X148.320 Y81.070 E2.12470
G1 X147.786 Y81.070 E0.01676
G1 X195.646 Y128.930 E2.12470
G1 X195.112 Y128.930 E0.01676
G1 X147.252 Y81.070 E2.12470
G1 X146.718 Y81.070 E0.01676
G1 X194.578 Y128.930 E2.12470
G1 X194.045 Y128.930 E0.01676
G1 X146.184 Y81.070 E2.12470
G1 X145.650 Y81.070 E0.01676
G1 X193.511 Y128.930 E2.12470
G1 X192.977 Y128.930 E0.01676
G1 X145.116 Y81.070 E2.12470
G1 X144.583 Y81.070 E0.01676
G1 X192.443 Y128.930 E2.12470
M73 P6 R69
G1 X191.909 Y128.930 E0.01676
G1 X144.049 Y81.070 E2.12470
M73 Q6 S71
G1 X143.515 Y81.070 E0.01676
G1 X191.375 Y128.930 E2.12470
G1 X190.841 Y128.930 E0.01676
G1 X142.981 Y81.070 E2.12470
G1 X142.447 Y81.070 E0.01676
G1 X190.307 Y128.930 E2.12470
G1 X189.773 Y128.930 E0.01676
G1 X141.913 Y81.070 E2.12470
G1 X141.379 Y81.070 E0.01676
G1 X189.239 Y128.930 E2.12470
G1 X188.706 Y128.930 E0.01676
G1 X140.845 Y81.070 E2.12470
M73 Q6 S70
G1 X140.311 Y81.070 E0.01676
G1 X188.172 Y128.930 E2.12470
G1 X187.638 Y128.930 E0.01676
G1 X139.777 Y81.070 E2.12470
G1 X139.244 Y81.070 E0.01676
G1 X187.104 Y128.930 E2.12470
G1 X186.570 Y128.930 E0.01676
G1 X138.710 Y81.070 E2.12470
G1 X138.176 Y81.070 E0.01676
G1 X186.036 Y128.930 E2.12470
G1 X185.502 Y128.930 E0.01676
G1 X137.642 Y81.070 E2.12470
M73 P7 R69
G1 X137.108 Y81.070 E0.01676
G1 X184.968 Y128.930 E2.12470
G1 X184.434 Y128.930 E0.01676
G1 X136.574 Y81.070 E2.12470
M73 Q7 S70
G1 X136.040 Y81.070 E0.01676
G1 X183.900 Y128.930 E2.12470
G1 X183.367 Y128.930 E0.01676
G1 X135.506 Y81.070 E2.12470
G1 X134.972 Y81.070 E0.01676
G1 X182.833 Y128.930 E2.12470
M73 P7 R68
G1 X182.299 Y128.930 E0.01676
G1 X134.439 Y81.070 E2.12470
G1 X133.905 Y81.070 E0.01676
G1 X181.765 Y128.930 E2.12470
G1 X181.231 Y128.930 E0.01676
G1 X133.371 Y81.070 E2.12470
G1 X132.837 Y81.070 E0.01676
G1 X180.697 Y128.930 E2.12470
G1 X180.163 Y128.930 E0.01676
G1 X132.303 Y81.070 E2.12470
G1 X131.769 Y81.070 E0.01676
G1 X179.629 Y128.930 E2.12470
G1 X179.095 Y128.930 E0.01676
G1 X131.235 Y81.070 E2.12470
M73 Q7 S69
G1 X130.701 Y81.070 E0.01676
G1 X178.561 Y128.930 E2.12470
M73 P8 R68
G1 X178.028 Y128.930 E0.01676
G1 X130.167 Y81.070 E2.12470
G1 X129.633 Y81.070 E0.01676
G1 X177.494 Y128.930 E2.12470
M73 Q8 S69
G1 X176.960 Y128.930 E0.01676
G1 X129.100 Y81.070 E2.12470
G1 X128.566 Y81.070 E0.01676
G1 X176.426 Y128.930 E2.12470
G1 X175.892 Y128.930 E0.01676
G1 X128.032 Y81.070 E2.12470
G1 X127.498 Y81.070 E0.01676
G1 X175.358 Y128.930 E2.12470
G1 X174.824 Y128.930 E0.01676
G1 X126.964 Y81.070 E2.12470
G1 X126.430 Y81.070 E0.01676
G1 X174.290 Y128.930 E2.12470
G1 X173.756 Y128.930 E0.01676
G1 X125.896 Y81.070 E2.12470
M73 P8 R67
G1 X125.362 Y81.070 E0.01676
G1 X173.222 Y128.930 E2.12470
G1 X172.689 Y128.930 E0.01676
G1 X124.828 Y81.070 E2.12470
G1 X124.294 Y81.070 E0.01676
G1 X172.155 Y128.930 E2.12470
G1 X171.621 Y128.930 E0.01676
G1 X123.761 Y81.070 E2.12470
M73 P9 R67
G1 X123.227 Y81.070 E0.01676
G1 X171.087 Y128.930 E2.12470
G1 X170.553 Y128.930 E0.01676
G1 X122.693 Y81.070 E2.12470
M73 Q9 S69
G1 X122.159 Y81.070 E0.01676
G1 X170.019 Y128.930 E2.12470
M73 Q9 S68
G1 X169.485 Y128.930 E0.01676
G1 X121.625 Y81.070 E2.12470
G1 X121.091 Y81.070 E0.01676
G1 X168.951 Y128.930 E2.12470
G1 X168.417 Y128.930 E0.01676
G1 X120.557 Y81.070 E2.12470
G1 X120.023 Y81.070 E0.01676
G1 X167.883 Y128.930 E2.12470
G1 X167.350 Y128.930 E0.01676
G1 X119.489 Y81.070 E2.12470
G1 X118.955 Y81.070 E0.01676
G1 X166.816 Y128.930 E2.12470
G1 X166.282 Y128.930 E0.01676
G1 X118.422 Y81.070 E2.12470
G1 X117.888 Y81.070 E0.01676
G1 X165.748 Y128.930 E2.12470
G1 X165.214 Y128.930 E0.01676
G1 X117.354 Y81.070 E2.12470
G1 X116.820 Y81.070 E0.01676
G1 X164.680 Y128.930 E2.12470
M73 P10 R67
G1 X164.146 Y128.930 E0.01676
G1 X116.286 Y81.070 E2.12470
M73 P10 R66
G1 X115.752 Y81.070 E0.01676
G1 X163.612 Y128.930 E2.12470
M73 Q10 S68
G1 X163.078 Y128.930 E0.01676
G1 X115.218 Y81.070 E2.12470
G1 X114.684 Y81.070 E0.01676
G1 X162.545 Y128.930 E2.12470
G1 X162.011 Y128.930 E0.01676
G1 X114.150 Y81.070 E2.12470
G1 X113.616 Y81.070 E0.01676
G1 X161.477 Y128.930 E2.12470
G1 X160.943 Y128.930 E0.01676
G1 X113.083 Y81.070 E2.12470
G1 X112.549 Y81.070 E0.01676
G1 X160.409 Y128.930 E2.12470
M73 Q10 S67
G1 X159.875 Y128.930 E0.01676
G1 X112.015 Y81.070 E2.12470
G1 X111.481 Y81.070 E0.01676
G1 X159.341 Y128.930 E2.12470
G1 X158.807 Y128.930 E0.01676
G1 X110.947 Y81.070 E2.12470
G1 X110.413 Y81.070 E0.01676
G1 X158.273 Y128.930 E2.12470
G1 X157.739 Y128.930 E0.01676
G1 X109.879 Y81.070 E2.12470
M73 P11 R66
G1 X109.345 Y81.070 E0.01676
G1 X157.206 Y128.930 E2.12470
G1 X156.672 Y128.930 E0.01676
G1 X108.811 Y81.070 E2.12470
M73 Q11 S67
G1 X108.277 Y81.070 E0.01676
G1 X156.138 Y128.930 E2.12470
G1 X155.604 Y128.930 E0.01676
G1 X107.744 Y81.070 E2.12470
G1 X107.210 Y81.070 E0.01676
G1 X155.070 Y128.930 E2.12470
M73 P11 R65
G1 X154.536 Y128.930 E0.01676
G1 X106.676 Y81.070 E2.12470
G1 X106.142 Y81.070 E0.01676
G1 X154.002 Y128.930 E2.12470
G1 X153.468 Y128.930 E0.01676
G1 X105.608 Y81.070 E2.12470
G1 X105.074 Y81.070 E0.01676
G1 X152.934 Y128.930 E2.12470
G1 X152.400 Y128.930 E0.01676
G1 X104.540 Y81.070 E2.12470
G1 X104.006 Y81.070 E0.01676
G1 X151.867 Y128.930 E2.12470
G1 X151.333 Y128.930 E0.01676
G1 X103.472 Y81.070 E2.12470
M73 Q11 S66
G1 X102.939 Y81.070 E0.01676
G1 X150.799 Y128.930 E2.12470
M73 P12 R65
G1 X150.265 Y128.930 E0.01676
G1 X102.405 Y81.070 E2.12470
G1 X101.871 Y81.070 E0.01676
G1 X149.731 Y128.930 E2.12470
G1 X149.197 Y128.930 E0.01676
G1 X101.337 Y81.070 E2.12470
M73 Q12 S66
G1 X100.803 Y81.070 E0.01676
G1 X148.663 Y128.930 E2.12470
G1 X148.129 Y128.930 E0.01676
G1 X100.269 Y81.070 E2.12470
G1 X99.735 Y81.070 E0.01676
G1 X147.595 Y128.930 E2.12470
G1 X147.061 Y128.930 E0.01676
G1 X99.201 Y81.070 E2.12470
G1 X98.667 Y81.070 E0.01676
G1 X146.528 Y128.930 E2.12470
G1 X145.994 Y128.930 E0.01676
G1 X98.133 Y81.070 E2.12470
G1 X97.600 Y81.070 E0.01676
G1 X145.460 Y128.930 E2.12470
M73 P12 R64
G1 X144.926 Y128.930 E0.01676
G1 X97.066 Y81.070 E2.12470
G1 X96.532 Y81.070 E0.01676
G1 X144.392 Y128.930 E2.12470
G1 X143.858 Y128.930 E0.01676
G1 X95.998 Y81.070 E2.12470
M73 P13 R64
G1 X95.464 Y81.070 E0.01676
G1 X143.324 Y128.930 E2.12470
G1 X142.790 Y128.930 E0.01676
G1 X94.930 Y81.070 E2.12470
G1 X94.396 Y81.070 E0.01676
G1 X142.256 Y128.930 E2.12470
M73 Q13 S66
G1 X141.722 Y128.930 E0.01676
G1 X93.862 Y81.070 E2.12470
M73 Q13 S65
G1 X93.328 Y81.070 E0.01676
G1 X141.189 Y128.930 E2.12470
G1 X140.655 Y128.930 E0.01676
G1 X92.794 Y81.070 E2.12470
G1 X92.261 Y81.070 E0.01676
G1 X140.121 Y128.930 E2.12470
G1 X139.587 Y128.930 E0.01676
G1 X91.727 Y81.070 E2.12470
G1 X91.193 Y81.070 E0.01676
G1 X139.053 Y128.930 E2.12470
G1 X138.519 Y128.930 E0.01676
G1 X90.659 Y81.070 E2.12470
G1 X90.125 Y81.070 E0.01676
G1 X137.985 Y128.930 E2.12470
G1 X137.451 Y128.930 E0.01676
G1 X89.591 Y81.070 E2.12470
G1 X89.057 Y81.070 E0.01676
G1 X136.917 Y128.930 E2.12470
M73 P14 R64
G1 X136.384 Y128.930 E0.01676
G1 X88.523 Y81.070 E2.12470
M73 P14 R63
G1 X87.989 Y81.070 E0.01676
G1 X135.850 Y128.930 E2.12470
G1 X135.316 Y128.930 E0.01676
G1 X87.455 Y81.070 E2.12470
M73 Q14 S65
