; generated by PrusaSlicer 2.3.3 on 2021-12-19 at 21:15:54 UTC

; 

; external perimeters extrusion width = 0.45mm
; perimeters extrusion width = 0.45mm
; infill extrusion width = 0.45mm
; solid infill extrusion width = 0.45mm
; top infill extrusion width = 0.40mm
; first layer extrusion width = 0.42mm

M73 P0 R78
M73 Q0 S79
M201 X1000 Y1000 Z200 E5000 ; sets maximum accelerations, mm/sec^2
M203 X200 Y200 Z12 E120 ; sets maximum feedrates, mm/sec
M204 P1250 R1250 T1250 ; sets acceleration (P, T) and retract acceleration (R), mm/sec^2
M205 X8.00 Y8.00 Z0.40 E4.50 ; sets the jerk limits, mm/sec
M205 S0 T0 ; sets the minimum extruding and travel feed rate, mm/sec
M107
;TYPE:Custom
M862.3 P "MK3" ; printer model check
M862.1 P0.4 ; nozzle diameter check
M115 U3.10.0 ; tell printer latest fw version
G90 ; use absolute coordinates
M83 ; extruder relative mode
M104 S215 ; set extruder temp
M140 S60 ; set bed temp
M190 S60 ; wait for bed temp
M109 S215 ; wait for extruder temp
G28 W ; home all without mesh bed level
G80 ; mesh bed leveling
G1 Y-3.0 F1000.0 ; go outside print area
G92 E0.0
G1 X60.0 E9.0 F1000.0 ; intro line
G1 X100.0 E12.5 F1000.0 ; intro line
G92 E0.0
M221 S95

; Don't change E values below. Excessive value can damage the printer.

M907 E538 ; set extruder motor current
G21 ; set units to millimeters
G90 ; use absolute coordinates
M83 ; use relative distances for extrusion
M900 K0.05 ; Filament gcode LA 1.5
M900 K30 ; Filament gcode LA 1.0
;LAYER_CHANGE
;Z:0.2
;HEIGHT:0.2
;BEFORE_LAYER_CHANGE
G92 E0.0
;0.2


M73 P0 R77
G1 E-0.80000 F2100.000
G1 Z0.400 F10800.000
;AFTER_LAYER_CHANGE
;0.2
G1 X65.187 Y43.646
M73 Q0 S78
G1 Z0.200
G1 E0.80000 F2100.000
M204 S1000
;TYPE:Skirt
;WIDTH:0.42
G1 F1200.000
G1 X66.201 Y43.092 E0.03624
G1 X67.334 Y42.740 E0.03719
G1 X68.461 Y42.623 E0.03553
G1 X181.504 Y42.623 E3.54439
G1 X182.645 Y42.736 E0.03597
G1 X183.741 Y43.067 E0.03589
G1 X184.755 Y43.606 E0.03600
G1 X185.620 Y44.309 E0.03494
G1 X186.354 Y45.187 E0.03588
G1 X186.836 Y46.038 E0.03068
G1 X187.205 Y47.089 E0.03493
G1 X187.371 Y48.245 E0.03660
G1 X187.377 Y161.530 E3.55200
G1 X187.264 Y162.645 E0.03513
G1 X186.944 Y163.713 E0.03494
G1 X186.416 Y164.719 E0.03564
G1 X185.817 Y165.488 E0.03056
G1 X184.813 Y166.354 E0.04155
G1 X183.792 Y166.911 E0.03648
G1 X182.655 Y167.262 E0.03731
G1 X181.505 Y167.377 E0.03624
G1 X68.470 Y167.377 E3.54415
G1 X67.356 Y167.265 E0.03508
G1 X66.287 Y166.944 E0.03499
G1 X65.281 Y166.416 E0.03564
G1 X64.512 Y165.817 E0.03056
G1 X63.644 Y164.810 E0.04167
G1 X63.089 Y163.792 E0.03636
G1 X62.738 Y162.655 E0.03731
G1 X62.623 Y161.505 E0.03624
G1 X62.623 Y48.470 E3.54415
G1 X62.735 Y47.356 E0.03508
G1 X63.056 Y46.287 E0.03499
G1 X63.584 Y45.281 E0.03564
G1 X64.183 Y44.512 E0.03056
G1 X65.141 Y43.686 E0.03967
; printing object TestRig-DevBoard.stl id:0 copy 0
;WIPE_START
G1 F8640.000
G1 X66.201 Y43.092 E-0.28046
G1 X67.334 Y42.740 E-0.27389
G1 X68.220 Y42.648 E-0.20566
;WIPE_END
G1 E-0.04000 F2100.000
G1 Z0.600 F10800.000
G1 X121.935 Y85.118
G1 Z0.200
G1 E0.80000 F2100.000
;TYPE:Perimeter
G1 F1200.000
G1 X122.185 Y84.780 E0.01319
G1 X122.468 Y84.468 E0.01319
G1 X122.780 Y84.185 E0.01319
G1 X123.118 Y83.935 E0.01319
G1 X123.479 Y83.718 E0.01319
G1 X123.859 Y83.539 E0.01319
G1 X124.255 Y83.397 E0.01319
G1 X124.663 Y83.295 E0.01319
G1 X125.080 Y83.233 E0.01319
G1 X125.483 Y83.213 E0.01266
G1 X175.017 Y83.213 E1.55310
G1 X175.420 Y83.233 E0.01266
G1 X175.844 Y83.296 E0.01342
G1 X176.445 Y83.462 E0.01956
G1 X177.022 Y83.718 E0.01978
G1 X177.549 Y84.051 E0.01956
G1 X177.880 Y84.323 E0.01342
G1 X178.177 Y84.620 E0.01319
G1 X178.449 Y84.951 E0.01342
G1 X178.782 Y85.478 E0.01956
G1 X179.035 Y86.049 E0.01956
G1 X179.159 Y86.458 E0.01342
G1 X179.243 Y86.878 E0.01342
G1 X179.287 Y87.476 E0.01880
G1 X179.287 Y120.517 E1.03598
G1 X179.267 Y120.920 E0.01266
G1 X179.204 Y121.344 E0.01342
G1 X179.038 Y121.945 E0.01956
G1 X178.782 Y122.522 E0.01978
G1 X178.449 Y123.049 E0.01956
G1 X178.177 Y123.380 E0.01342
G1 X177.874 Y123.682 E0.01342
G1 X177.388 Y124.061 E0.01933
G1 X177.015 Y124.285 E0.01365
G1 X176.451 Y124.535 E0.01933
G1 X176.042 Y124.659 E0.01342
G1 X175.622 Y124.743 E0.01342
G1 X175.024 Y124.787 E0.01880
G1 X125.483 Y124.787 E1.55333
G1 X125.080 Y124.767 E0.01266
G1 X124.656 Y124.704 E0.01342
G1 X124.055 Y124.538 E0.01956
G1 X123.478 Y124.282 E0.01978
G1 X122.945 Y123.945 E0.01978
G1 X122.473 Y123.537 E0.01956
G1 X122.185 Y123.220 E0.01342
G1 X121.935 Y122.882 E0.01319
G1 X121.718 Y122.521 E0.01319
G1 X121.538 Y122.140 E0.01322
G1 X121.390 Y121.724 E0.01385
G1 X121.259 Y121.136 E0.01888
G1 X121.217 Y120.710 E0.01341
G1 X121.217 Y87.290 E1.04789
G1 X121.259 Y86.871 E0.01319
G1 X121.342 Y86.451 E0.01342
G1 X121.535 Y85.866 E0.01933
G1 X121.718 Y85.479 E0.01342
G1 X121.904 Y85.169 E0.01131
G1 X121.886 Y86.006 F10800.000
;TYPE:External perimeter
G1 F1200.000
G1 X122.051 Y85.657 E0.01211
G1 X122.249 Y85.328 E0.01203
G1 X122.477 Y85.019 E0.01203
G1 X122.735 Y84.735 E0.01203
G1 X123.019 Y84.477 E0.01203
G1 X123.328 Y84.249 E0.01203
G1 X123.657 Y84.051 E0.01203
G1 X124.004 Y83.887 E0.01203
G1 X124.365 Y83.758 E0.01203
G1 X124.737 Y83.665 E0.01203
G1 X125.117 Y83.609 E0.01203
G1 X125.492 Y83.590 E0.01179
G1 X175.008 Y83.590 E1.55252
G1 X175.383 Y83.609 E0.01179
G1 X175.765 Y83.665 E0.01211
G1 X176.317 Y83.818 E0.01796
G1 X176.843 Y84.051 E0.01804
G1 X177.327 Y84.358 E0.01796
G1 X177.626 Y84.603 E0.01211
G1 X177.897 Y84.874 E0.01203
G1 X178.142 Y85.173 E0.01211
G1 X178.449 Y85.657 E0.01796
G1 X178.681 Y86.180 E0.01796
G1 X178.793 Y86.550 E0.01211
G1 X178.868 Y86.929 E0.01211
G1 X178.910 Y87.490 E0.01764
G1 X178.910 Y120.508 E1.03525
G1 X178.891 Y120.883 E0.01179
G1 X178.835 Y121.265 E0.01211
M73 P1 R77
G1 X178.682 Y121.817 E0.01796
G1 X178.449 Y122.343 E0.01804
G1 X178.142 Y122.827 E0.01796
G1 X177.897 Y123.126 E0.01211
G1 X177.624 Y123.399 E0.01211
G1 X177.175 Y123.750 E0.01788
G1 X176.841 Y123.950 E0.01219
G1 X176.320 Y124.181 E0.01788
G1 X175.950 Y124.293 E0.01211
G1 X175.571 Y124.368 E0.01211
G1 X175.010 Y124.410 E0.01764
G1 X125.492 Y124.410 E1.55260
M73 Q1 S78
G1 X125.117 Y124.391 E0.01179
G1 X124.735 Y124.335 E0.01211
G1 X124.183 Y124.182 E0.01796
G1 X123.657 Y123.949 E0.01804
G1 X123.170 Y123.641 E0.01804
G1 X122.737 Y123.267 E0.01796
G1 X122.477 Y122.981 E0.01211
G1 X122.249 Y122.672 E0.01203
G1 X122.051 Y122.343 E0.01203
G1 X121.887 Y121.996 E0.01204
G1 X121.753 Y121.619 E0.01254
G1 X121.632 Y121.076 E0.01745
G1 X121.594 Y120.692 E0.01211
G1 X121.594 Y87.308 E1.04672
G1 X121.632 Y86.926 E0.01203
G1 X121.707 Y86.547 E0.01211
G1 X121.867 Y86.063 E0.01600
G1 X121.649 Y85.701 F10800.000
;WIPE_START
G1 F8640.000
G1 X122.051 Y85.657 E-0.10297
G1 X122.249 Y85.328 E-0.08861
G1 X122.477 Y85.019 E-0.08861
G1 X122.735 Y84.735 E-0.08861
G1 X123.019 Y84.477 E-0.08861
G1 X123.328 Y84.249 E-0.08861
G1 X123.657 Y84.051 E-0.08861
G1 X124.004 Y83.887 E-0.08861
G1 X124.154 Y83.834 E-0.03679
;WIPE_END
G1 E-0.04000 F2100.000
G1 Z0.600 F10800.000
G1 X125.080 Y129.233
G1 Z0.200
G1 E0.80000 F2100.000
;TYPE:Perimeter
G1 F1200.000
G1 X125.483 Y129.213 E0.01266
G1 X175.024 Y129.213 E1.55333
G1 X175.622 Y129.257 E0.01880
G1 X176.042 Y129.341 E0.01342
G1 X176.451 Y129.465 E0.01342
G1 X177.015 Y129.715 E0.01933
G1 X177.388 Y129.939 E0.01365
G1 X177.874 Y130.318 E0.01933
G1 X178.182 Y130.626 E0.01365
G1 X178.566 Y131.117 E0.01956
G1 X178.873 Y131.660 E0.01956
G1 X179.040 Y132.062 E0.01365
G1 X179.206 Y132.663 E0.01956
G1 X179.283 Y133.282 E0.01956
G1 X179.287 Y155.024 E0.68170
G1 X179.243 Y155.622 E0.01880
G1 X179.159 Y156.042 E0.01342
G1 X179.035 Y156.451 E0.01342
G1 X178.785 Y157.015 E0.01933
G1 X178.561 Y157.388 E0.01365
G1 X178.182 Y157.874 E0.01933
G1 X177.874 Y158.182 E0.01365
G1 X177.383 Y158.566 E0.01956
G1 X176.840 Y158.873 E0.01956
G1 X176.438 Y159.040 E0.01365
G1 X175.837 Y159.206 E0.01956
G1 X175.218 Y159.283 E0.01956
G1 X125.476 Y159.287 E1.55962
G1 X124.878 Y159.243 E0.01880
G1 X124.457 Y159.159 E0.01344
G1 X124.035 Y159.030 E0.01385
G1 X123.478 Y158.782 E0.01911
G1 X122.951 Y158.449 E0.01955
G1 X122.620 Y158.177 E0.01342
G1 X122.318 Y157.874 E0.01342
G1 X121.934 Y157.383 E0.01956
G1 X121.627 Y156.840 E0.01956
G1 X121.460 Y156.438 E0.01365
G1 X121.296 Y155.844 E0.01933
G1 X121.233 Y155.420 E0.01342
G1 X121.213 Y155.017 E0.01267
G1 X121.217 Y133.290 E0.68124
G1 X121.259 Y132.871 E0.01319
G1 X121.342 Y132.451 E0.01342
G1 X121.535 Y131.866 E0.01933
G1 X121.718 Y131.479 E0.01342
G1 X121.935 Y131.118 E0.01319
G1 X122.185 Y130.780 E0.01319
G1 X122.468 Y130.468 E0.01319
G1 X122.780 Y130.185 E0.01319
G1 X123.118 Y129.935 E0.01319
G1 X123.479 Y129.718 E0.01319
G1 X123.859 Y129.539 E0.01319
G1 X124.255 Y129.397 E0.01319
G1 X124.663 Y129.295 E0.01319
G1 X125.020 Y129.242 E0.01131
G1 X125.076 Y129.615 F10800.000
;TYPE:External perimeter
G1 F1200.000
G1 X125.492 Y129.590 E0.01309
G1 X175.010 Y129.590 E1.55260
G1 X175.571 Y129.632 E0.01764
G1 X175.950 Y129.707 E0.01211
G1 X176.320 Y129.819 E0.01211
G1 X176.841 Y130.050 E0.01788
G1 X177.175 Y130.250 E0.01219
G1 X177.624 Y130.601 E0.01788
G1 X177.899 Y130.876 E0.01219
G1 X178.252 Y131.327 E0.01796
G1 X178.534 Y131.826 E0.01796
G1 X178.683 Y132.185 E0.01219
G1 X178.835 Y132.737 E0.01796
G1 X178.906 Y133.306 E0.01796
G1 X178.910 Y155.010 E0.68053
M73 P1 R76
G1 X178.868 Y155.571 E0.01764
G1 X178.793 Y155.950 E0.01211
G1 X178.681 Y156.320 E0.01211
G1 X178.450 Y156.841 E0.01788
G1 X178.250 Y157.175 E0.01219
G1 X177.899 Y157.624 E0.01788
G1 X177.624 Y157.899 E0.01219
G1 X177.173 Y158.252 E0.01796
G1 X176.674 Y158.534 E0.01796
G1 X176.315 Y158.683 E0.01219
G1 X175.763 Y158.835 E0.01796
G1 X175.194 Y158.906 E0.01796
G1 X125.490 Y158.910 E1.55845
M73 Q1 S77
G1 X124.929 Y158.868 E0.01764
G1 X124.550 Y158.793 E0.01212
G1 X124.167 Y158.676 E0.01254
G1 X123.656 Y158.449 E0.01753
G1 X123.173 Y158.142 E0.01795
G1 X122.874 Y157.897 E0.01211
G1 X122.601 Y157.624 E0.01211
G1 X122.248 Y157.173 E0.01796
G1 X121.966 Y156.674 E0.01796
G1 X121.817 Y156.315 E0.01219
G1 X121.665 Y155.765 E0.01788
G1 X121.609 Y155.383 E0.01211
G1 X121.590 Y155.008 E0.01179
G1 X121.594 Y133.308 E0.68037
G1 X121.632 Y132.926 E0.01203
G1 X121.707 Y132.547 E0.01211
G1 X121.886 Y132.006 E0.01788
G1 X122.051 Y131.657 E0.01211
G1 X122.249 Y131.328 E0.01203
G1 X122.477 Y131.019 E0.01203
G1 X122.735 Y130.735 E0.01203
G1 X123.019 Y130.477 E0.01203
G1 X123.328 Y130.249 E0.01203
G1 X123.657 Y130.051 E0.01203
G1 X124.004 Y129.887 E0.01203
G1 X124.365 Y129.758 E0.01203
G1 X124.737 Y129.665 E0.01203
G1 X125.016 Y129.623 E0.00885
G1 X125.238 Y129.249 F10800.000
;WIPE_START
G1 F8640.000
G1 X125.492 Y129.590 E-0.11020
G1 X128.307 Y129.590 E-0.64980
;WIPE_END
G1 E-0.04000 F2100.000
G1 Z0.600 F10800.000
G1 X125.016 Y164.213
G1 Z0.200
G1 E0.80000 F2100.000
;TYPE:Perimeter
G1 F1200.000
G1 X68.517 Y164.213 E1.77150
G1 X68.234 Y164.199 E0.00887
G1 X67.971 Y164.160 E0.00834
G1 X67.713 Y164.095 E0.00835
G1 X67.462 Y164.006 E0.00835
G1 X67.222 Y163.892 E0.00835
G1 X66.993 Y163.755 E0.00835
G1 X66.779 Y163.597 E0.00835
G1 X66.582 Y163.418 E0.00835
G1 X66.403 Y163.221 E0.00835
G1 X66.245 Y163.007 E0.00835
G1 X66.108 Y162.779 E0.00835
G1 X65.994 Y162.538 E0.00835
G1 X65.905 Y162.287 E0.00835
G1 X65.840 Y162.029 E0.00835
G1 X65.801 Y161.766 E0.00834
G1 X65.787 Y161.483 E0.00887
G1 X65.787 Y48.517 E3.54198
G1 X65.801 Y48.234 E0.00887
G1 X65.840 Y47.971 E0.00834
G1 X65.905 Y47.713 E0.00835
G1 X65.994 Y47.462 E0.00835
G1 X66.108 Y47.222 E0.00835
G1 X66.245 Y46.993 E0.00835
G1 X66.403 Y46.779 E0.00835
G1 X66.582 Y46.582 E0.00835
G1 X66.779 Y46.403 E0.00835
G1 X66.993 Y46.245 E0.00835
G1 X67.222 Y46.108 E0.00835
G1 X67.462 Y45.994 E0.00835
G1 X67.713 Y45.905 E0.00835
G1 X67.971 Y45.840 E0.00835
G1 X68.234 Y45.801 E0.00834
G1 X68.517 Y45.787 E0.00887
G1 X181.489 Y45.787 E3.54217
G1 X181.766 Y45.801 E0.00868
G1 X182.029 Y45.840 E0.00835
G1 X182.287 Y45.905 E0.00835
G1 X182.538 Y45.994 E0.00835
G1 X182.779 Y46.108 E0.00835
G1 X183.007 Y46.245 E0.00835
G1 X183.221 Y46.403 E0.00835
G1 X183.418 Y46.582 E0.00835
G1 X183.597 Y46.779 E0.00835
G1 X183.755 Y46.993 E0.00835
G1 X183.892 Y47.222 E0.00835
G1 X184.006 Y47.462 E0.00835
G1 X184.095 Y47.713 E0.00835
G1 X184.160 Y47.971 E0.00835
G1 X184.199 Y48.234 E0.00834
G1 X184.213 Y48.517 E0.00887
G1 X184.213 Y161.483 E3.54198
G1 X184.199 Y161.766 E0.00887
G1 X184.160 Y162.029 E0.00834
G1 X184.095 Y162.287 E0.00835
G1 X184.006 Y162.538 E0.00835
G1 X183.892 Y162.779 E0.00835
G1 X183.755 Y163.007 E0.00835
G1 X183.597 Y163.221 E0.00835
G1 X183.418 Y163.418 E0.00835
G1 X183.221 Y163.597 E0.00835
G1 X183.007 Y163.755 E0.00835
G1 X182.779 Y163.892 E0.00835
G1 X182.538 Y164.006 E0.00835
G1 X182.287 Y164.095 E0.00835
G1 X182.029 Y164.160 E0.00835
G1 X181.766 Y164.199 E0.00834
G1 X181.483 Y164.213 E0.00887
G1 X125.076 Y164.213 E1.76860
G1 X125.076 Y164.590 F10800.000
;TYPE:External perimeter
G1 F1200.000
G1 X68.508 Y164.590 E1.77367
M73 P2 R76
M73 Q2 S77
G1 X68.197 Y164.575 E0.00975
G1 X67.897 Y164.530 E0.00951
G1 X67.603 Y164.457 E0.00951
G1 X67.318 Y164.354 E0.00951
G1 X67.044 Y164.225 E0.00951
G1 X66.783 Y164.069 E0.00951
G1 X66.540 Y163.888 E0.00951
G1 X66.315 Y163.685 E0.00951
G1 X66.112 Y163.460 E0.00951
G1 X65.931 Y163.217 E0.00951
G1 X65.775 Y162.956 E0.00951
G1 X65.646 Y162.682 E0.00951
G1 X65.543 Y162.397 E0.00951
G1 X65.470 Y162.103 E0.00951
G1 X65.425 Y161.803 E0.00951
G1 X65.410 Y161.492 E0.00975
G1 X65.410 Y48.508 E3.54256
G1 X65.425 Y48.197 E0.00975
G1 X65.470 Y47.897 E0.00951
G1 X65.543 Y47.603 E0.00951
G1 X65.646 Y47.318 E0.00951
G1 X65.775 Y47.044 E0.00951
G1 X65.931 Y46.783 E0.00951
G1 X66.112 Y46.540 E0.00951
G1 X66.315 Y46.315 E0.00951
G1 X66.540 Y46.112 E0.00951
G1 X66.783 Y45.931 E0.00951
G1 X67.044 Y45.775 E0.00951
G1 X67.318 Y45.646 E0.00951
G1 X67.603 Y45.543 E0.00951
G1 X67.897 Y45.470 E0.00951
G1 X68.197 Y45.425 E0.00951
G1 X68.508 Y45.410 E0.00975
G1 X181.498 Y45.410 E3.54275
G1 X181.803 Y45.425 E0.00955
G1 X182.103 Y45.470 E0.00951
G1 X182.397 Y45.543 E0.00951
G1 X182.682 Y45.646 E0.00951
G1 X182.956 Y45.775 E0.00951
G1 X183.217 Y45.931 E0.00951
G1 X183.460 Y46.112 E0.00951
G1 X183.685 Y46.315 E0.00951
G1 X183.888 Y46.540 E0.00951
G1 X184.069 Y46.783 E0.00951
G1 X184.225 Y47.044 E0.00951
G1 X184.354 Y47.318 E0.00951
G1 X184.457 Y47.603 E0.00951
G1 X184.530 Y47.897 E0.00951
G1 X184.575 Y48.197 E0.00951
G1 X184.590 Y48.508 E0.00975
G1 X184.590 Y161.492 E3.54256
G1 X184.575 Y161.803 E0.00975
G1 X184.530 Y162.103 E0.00951
G1 X184.457 Y162.397 E0.00951
G1 X184.354 Y162.682 E0.00951
G1 X184.225 Y162.956 E0.00951
G1 X184.069 Y163.217 E0.00951
G1 X183.888 Y163.460 E0.00951
G1 X183.685 Y163.685 E0.00951
G1 X183.460 Y163.888 E0.00951
G1 X183.217 Y164.069 E0.00951
G1 X182.956 Y164.225 E0.00951
G1 X182.682 Y164.354 E0.00951
G1 X182.397 Y164.457 E0.00951
G1 X182.103 Y164.530 E0.00951
G1 X181.803 Y164.575 E0.00951
G1 X181.492 Y164.590 E0.00975
G1 X125.136 Y164.590 E1.76701
G1 X124.876 Y164.244 F10800.000
;WIPE_START
G1 F8640.000
G1 X121.845 Y164.590 E-0.76000
;WIPE_END
G1 E-0.04000 F2100.000
G1 Z0.600 F10800.000
G1 X182.569 Y46.134
G1 Z0.200
G1 E0.80000 F2100.000
;TYPE:Solid infill
;WIDTH:0.420589
G1 F1200.000
G1 X183.219 Y46.784 E0.02887
G1 X183.520 Y47.151 E0.01488
G1 X183.744 Y47.570 E0.01495
G1 X183.867 Y47.967 E0.01303
G1 X182.033 Y46.133 E0.08145
G1 X181.738 Y46.083 E0.00941
G1 X181.437 Y46.070 E0.00947
G1 X183.930 Y48.563 E0.11073
G1 X183.930 Y49.097 E0.01677
G1 X180.903 Y46.070 E0.13445
G1 X180.369 Y46.070 E0.01677
G1 X183.930 Y49.632 E0.15817
G1 X183.930 Y50.166 E0.01677
G1 X179.834 Y46.070 E0.18189
G1 X179.300 Y46.070 E0.01677
G1 X183.930 Y50.700 E0.20561
G1 X183.930 Y51.234 E0.01677
G1 X178.766 Y46.070 E0.22933
G1 X178.232 Y46.070 E0.01677
G1 X183.930 Y51.768 E0.25305
G1 X183.930 Y52.302 E0.01677
G1 X177.698 Y46.070 E0.27677
G1 X177.164 Y46.070 E0.01677
G1 X183.930 Y52.836 E0.30049
G1 X183.930 Y53.370 E0.01677
G1 X176.630 Y46.070 E0.32421
G1 X176.096 Y46.070 E0.01677
G1 X183.930 Y53.904 E0.34793
G1 X183.930 Y54.439 E0.01677
G1 X175.562 Y46.070 E0.37165
G1 X175.028 Y46.070 E0.01677
